X: 4962
T: Brenda Castles's
R: hornpipe
M: 4/4
K: Cmajor
(3GAB|:c2 (3GAc AGED|CDEC D3G|C3G AGEG|Add^c dGAB|
c2 Bc AGED|CDEC D2ED|CDEG AGEG|(3ABc Bd cGAB:|
|:cGED CEGc|AFDE F2FG|(3ABc Bc Ac GE|CDEC G,2 (3GAB|
cGED C2cB|AFDE F2dc|BA G^F =FA B,C|~D2CB, CGAB:|

